X: 32144
T: Peter Moran's Fiddle
R: jig
M: 6/8
K: Dmajor
|:F|GBG FAd|BAF E2 F|AFE DEF|AFF EFD|
~G3 FAd|Bed BAF|GEE FAd|BAF E2:|
|:A|Bed BAF|ABc d/c/d A|BAF AFE|~F3 DFA|
Bed BAF|AF/G/A dAF|GEG FDF|BAF E2:|
|:A|~B3 ed_B|Bgf gfd|eBB =cBA|~B3 FGA|
Bec dBA|~g3 fdA|GBd FAd|BAF E2:|

